docs/img/logo-main.svg

<svg width="151" height="41" viewBox="0 0 151 41" fill="none" xmlns="http://www.w3.org/2000/svg">
<path d="M11.6041 11.0958C9.21124 11.0958 0.649062 12.1213 0.0142244 14.6118C-0.213666 15.4908 2.37452 13.8305 2.21174 19.6905C2.16291 21.6601 2.29313 23.2554 2.29313 24.8669C2.29313 28.2852 2.21174 31.0199 2.14663 33.4453C2.0978 35.2033 2.04896 36.7335 2.04896 38.1171C2.04896 40.4937 4.06742 40.4937 4.71854 40.4937C6.24866 40.4937 8.21828 40.0216 8.29967 40.0053C8.82057 39.8751 9.1624 39.3542 9.06474 38.8333C9.06474 38.8008 8.54384 35.9521 8.54384 34.3732C8.54384 33.6407 8.59268 31.8013 8.62523 30.4014C9.19496 30.4665 9.89491 30.5153 10.5949 30.5153C18.1152 30.5153 22.6079 26.8039 22.6079 20.5858C22.6242 14.4653 18.7013 11.0958 11.6041 11.0958ZM10.839 24.7366C10.0089 24.7366 9.22751 24.6553 8.67407 24.5739C8.62523 20.7974 8.49501 18.1441 8.4299 16.9233C9.35774 16.8093 10.2856 16.7605 11.2297 16.7605C14.3713 16.7605 15.9666 18.0627 15.9666 20.6183C15.9666 22.3763 15.4294 24.7366 10.839 24.7366Z" fill="#80C41C"/>
<path d="M74.2908 33.0384C74.128 32.8268 73.8675 32.6803 73.5908 32.6477C73.3141 32.6151 73.0374 32.6965 72.8257 32.8756C71.7514 33.7546 69.9283 34.7964 67.2913 34.7964C62.9613 34.7964 60.3731 31.5245 60.3731 26.0714C60.3731 20.6997 63.059 16.9558 66.9169 16.9558C68.3005 16.9558 69.2934 17.2162 70.205 17.2814C77.5789 17.8185 74.6977 8.9308 74.1117 9.79353C72.5653 12.0399 69.9446 10.8353 67.1285 10.9818C63.0102 11.2097 59.543 12.6422 57.1013 15.8001C54.9363 18.5836 53.748 22.3926 53.748 26.4947C53.748 35.2196 59.0546 40.8518 67.2587 40.8518C71.3445 40.8518 75.5767 39.2891 75.5767 36.6846C75.5441 35.4638 75.0395 34.015 74.2908 33.0384Z" fill="#80C41C"/>
<path d="M99.3583 9.54932C98.7723 9.54932 99.2444 10.7864 97.4538 11.0957C95.6144 11.405 85.7337 11.3562 84.0246 11.3236C82.413 11.2911 80.8992 11.2585 79.6621 11.2585C77.9692 11.2585 77.1064 12.1049 77.1064 13.7816C77.1064 14.628 77.2529 16.0605 77.2692 16.1256C77.3181 16.5976 77.6924 16.972 78.1645 17.0371C79.6295 17.2325 82.6084 17.3953 85.1314 17.4767C85.1152 19.8695 85.0501 22.7181 85.0012 25.5017C84.9361 29.3432 84.871 33.315 84.871 36.1148C84.871 36.8636 84.9036 38.231 85.1477 38.9798C85.1477 38.996 85.164 39.0123 85.164 39.0286C85.6849 40.3308 86.8081 40.5099 87.9638 40.5099C88.7777 40.5099 90.0637 40.4285 91.024 40.168C91.5449 40.0378 91.8705 39.5169 91.7728 38.9798C91.7728 38.9635 91.4798 37.4822 91.4798 36.2451C91.4473 34.2592 91.3984 29.8641 91.3984 28.155C91.3984 26.4621 91.4147 24.5901 91.431 22.6693C91.4473 20.9764 91.4636 19.2347 91.4636 17.5418C93.1565 17.5418 95.7446 17.6883 97.0794 17.379C101.833 16.2721 100.107 9.54932 99.3583 9.54932Z" fill="#80C41C"/>
<path d="M149.755 34.1127C148.632 34.1127 148.469 34.1127 147.443 32.0617C145.295 27.7969 144.123 25.7784 142.755 24.5901C145.49 20.3579 147.704 17.8511 150.699 14.856C151.09 14.4653 151.106 13.8304 150.715 13.4235C150.683 13.3909 149.755 12.4305 148.778 11.698C147.606 10.819 145.767 10.2819 143.748 12.8049C141.551 15.5722 139.06 19.6254 137.254 22.7507C136.684 22.7182 136.049 22.6856 135.284 22.6693C135.365 17.7697 135.43 14.8234 135.43 14.742C135.544 12.4305 134.551 11.5353 131.524 11.2423C128.577 10.9655 125.159 13.863 126.95 13.6839C129.196 13.4723 128.887 15.8326 128.919 18.8115C128.903 23.5483 128.838 29.1154 128.773 34.0964L128.724 37.2706C128.724 39.1914 129.229 40.4774 131.703 40.4774C132.533 40.4774 133.737 40.3471 134.682 40.1518C134.942 40.103 135.186 39.9402 135.333 39.7123C135.479 39.4844 135.528 39.2077 135.479 38.931C135.479 38.9147 135.154 37.4497 135.154 36.1963C135.154 34.4057 135.154 31.2152 135.219 27.8294C136.83 27.8945 137.433 28.0736 138.116 28.5945C138.93 29.2456 139.793 31.0362 140.802 33.1035C141.095 33.722 141.404 34.3569 141.746 35.0405C143.651 38.8496 144.627 40.5262 147.769 40.5262C149.869 40.5262 150.943 39.4519 150.943 37.3195C150.943 36.1637 150.748 35.008 150.732 34.9592C150.683 34.4708 150.26 34.1127 149.755 34.1127Z" fill="#80C41C"/>
<path d="M35.2072 9.12608C42.8578 7.9378 41.0835 3.78693 42.6462 0.612744C42.695 0.515077 42.6462 0.384853 42.516 0.368576C41.0672 0.205797 33.905 -0.738322 29.8843 1.2313C25.6032 3.33115 28.0124 10.0214 25.5056 14.156C25.2451 14.5955 26.6125 13.9932 26.7264 13.9443C28.8263 13.0002 29.6239 9.98881 35.2072 9.12608Z" fill="#237D26"/>
<path d="M25.066 6.40771C24.2847 2.79402 21.4198 3.23352 19.1734 0.222112C19.1083 0.124445 18.9618 0.140723 18.913 0.23839C17.7084 2.63124 16.2434 5.93565 17.2364 8.5564C18.213 11.1771 21.6477 10.2656 23.3568 15.328C23.422 15.5071 23.6824 15.5071 23.7475 15.3117C24.7242 12.5282 25.7334 9.46796 25.066 6.40771Z" fill="#237D26"/>
<path d="M112.234 10.8353C108.425 10.8353 105.381 12.3979 103.184 14.7908C103.184 14.7908 103.2 14.7745 103.2 14.7908C103.64 15.4582 107.823 13.7002 112.381 15.2466C115.588 16.3372 117.899 19.1044 118.566 22.4251C118.778 23.4995 118.892 24.6226 118.892 25.7458C118.892 31.1664 116.157 35.0893 112.381 35.0893C108.181 35.0893 105.577 31.6059 105.577 26.0063C105.577 20.6508 107.725 19.6742 111.697 19.4137C111.42 18.0952 110.02 17.086 108.246 16.679C104.763 15.8814 101.296 17.9487 100.042 21.302C99.4236 22.9297 98.9678 24.6389 98.9678 26.3155C98.9678 35.4637 103.933 40.9331 112.251 40.9331C120.894 40.9331 125.566 32.9569 125.566 25.4691C125.55 16.3046 120.585 10.8353 112.234 10.8353Z" fill="#80C41C"/>
<path d="M37.8602 10.8353C34.0512 10.8353 31.0072 12.3979 28.8097 14.7908C28.8097 14.7908 28.826 14.7745 28.826 14.7908C29.2655 15.4582 33.4489 13.7002 38.0067 15.2466C41.2135 16.3372 43.5249 19.1044 44.1923 22.4251C44.404 23.4995 44.5179 24.6226 44.5179 25.7458C44.5179 31.1664 41.7832 35.0893 38.0067 35.0893C33.807 35.0893 31.2026 31.6059 31.2026 26.0063C31.2026 20.6508 33.3513 19.6742 37.3231 19.4137C37.0463 18.0952 35.6464 17.086 33.8722 16.679C30.3887 15.8814 26.9215 17.9487 25.6681 21.302C25.0495 22.9297 24.5938 24.6389 24.5938 26.3155C24.5938 35.4637 29.5585 40.9331 37.8765 40.9331C46.5201 40.9331 51.1918 32.9569 51.1918 25.4691C51.1756 16.3046 46.1945 10.8353 37.8602 10.8353Z" fill="#FF0003"/>
</svg>

<svg width="151" height="41" fill="none" xmlns="http://www.w3.org/2000/svg"><path d="M11.604 11.096C9.211 11.096.65 12.12.014 14.612c-.228.879 2.36-.781 2.198 5.079-.05 1.97.081 3.564.081 5.176 0 3.418-.081 6.153-.146 8.578-.05 1.758-.098 3.288-.098 4.672 0 2.377 2.018 2.377 2.67 2.377 1.53 0 3.5-.472 3.58-.489.522-.13.863-.65.766-1.172 0-.032-.521-2.88-.521-4.46 0-.732.049-2.572.081-3.972.57.066 1.27.114 1.97.114 7.52 0 12.013-3.711 12.013-9.93.016-6.12-3.907-9.49-11.004-9.49zm-.765 13.64c-.83 0-1.611-.08-2.165-.162-.049-3.777-.179-6.43-.244-7.65a22.869 22.869 0 012.8-.163c3.141 0 4.737 1.302 4.737 3.857 0 1.758-.538 4.119-5.128 4.119zm63.451 8.302a1.05 1.05 0 00-.7-.39 1 1 0 00-.764.228c-1.075.879-2.898 1.92-5.535 1.92-4.33 0-6.918-3.271-6.918-8.725 0-5.371 2.686-9.115 6.544-9.115 1.383 0 2.376.26 3.288.325 7.374.538 4.493-8.35 3.907-7.487-1.547 2.246-4.167 1.041-6.983 1.188-4.119.228-7.586 1.66-10.028 4.818-2.165 2.784-3.353 6.593-3.353 10.695 0 8.725 5.307 14.357 13.51 14.357 4.087 0 8.319-1.563 8.319-4.167-.033-1.221-.537-2.67-1.286-3.647zM99.358 9.55c-.586 0-.114 1.236-1.904 1.546-1.84.309-11.72.26-13.43.228-1.611-.033-3.125-.066-4.362-.066-1.693 0-2.556.847-2.556 2.524 0 .846.147 2.279.163 2.344.05.472.423.846.895.911 1.465.196 4.444.358 6.967.44-.016 2.392-.08 5.241-.13 8.025-.065 3.841-.13 7.813-.13 10.613 0 .749.033 2.116.277 2.865 0 .016.016.032.016.049.52 1.302 1.644 1.48 2.8 1.48.814 0 2.1-.08 3.06-.341.52-.13.847-.651.749-1.188 0-.016-.293-1.498-.293-2.735a733.828 733.828 0 01-.082-8.09c0-1.693.017-3.565.033-5.486.016-1.693.033-3.434.033-5.127 1.692 0 4.28.146 5.615-.163 4.754-1.107 3.028-7.83 2.28-7.83zm50.397 24.563c-1.123 0-1.286 0-2.312-2.051-2.148-4.265-3.32-6.284-4.688-7.472 2.735-4.232 4.949-6.739 7.944-9.734a1.02 1.02 0 00.016-1.432c-.032-.033-.96-.993-1.937-1.726-1.172-.879-3.011-1.416-5.03 1.107-2.197 2.767-4.688 6.82-6.494 9.946a53.18 53.18 0 00-1.97-.082c.081-4.9.146-7.846.146-7.927.114-2.312-.879-3.207-3.906-3.5-2.947-.277-6.365 2.621-4.574 2.442 2.246-.212 1.937 2.149 1.969 5.127-.016 4.737-.081 10.304-.146 15.285l-.049 3.175c0 1.92.505 3.206 2.979 3.206.83 0 2.034-.13 2.979-.325.26-.049.504-.212.651-.44.146-.228.195-.504.146-.781 0-.016-.325-1.481-.325-2.735 0-1.79 0-4.98.065-8.367 1.611.066 2.214.245 2.897.765.814.652 1.677 2.442 2.686 4.51a99.6 99.6 0 00.944 1.937c1.905 3.809 2.881 5.485 6.023 5.485 2.1 0 3.174-1.074 3.174-3.207a14.39 14.39 0 00-.211-2.36c-.049-.488-.472-.846-.977-.846z" fill="#80C41C"/><path d="M35.207 9.126c7.65-1.188 5.877-5.34 7.44-8.513.048-.098 0-.228-.131-.244-1.449-.163-8.611-1.107-12.632.862-4.28 2.1-1.872 8.79-4.378 12.925-.26.44 1.107-.163 1.22-.212 2.1-.944 2.898-3.955 8.481-4.818zM25.066 6.408c-.781-3.614-3.646-3.174-5.893-6.186-.065-.098-.211-.081-.26.016-1.205 2.393-2.67 5.698-1.677 8.318.977 2.621 4.412 1.71 6.12 6.772.066.18.326.18.391-.016.977-2.784 1.986-5.844 1.319-8.904z" fill="#237D26"/><path d="M112.234 10.835c-3.809 0-6.853 1.563-9.05 3.956 0 0 .016-.017.016 0 .44.667 4.623-1.09 9.181.456 3.207 1.09 5.518 3.857 6.185 7.178a17.24 17.24 0 01.326 3.32c0 5.421-2.735 9.344-6.511 9.344-4.2 0-6.804-3.483-6.804-9.083 0-5.355 2.148-6.332 6.12-6.592-.277-1.319-1.677-2.328-3.451-2.735-3.483-.798-6.95 1.27-8.204 4.623-.618 1.628-1.074 3.337-1.074 5.014 0 9.148 4.965 14.617 13.283 14.617 8.643 0 13.315-7.976 13.315-15.464-.016-9.164-4.981-14.634-13.332-14.634z" fill="#80C41C"/><path d="M37.86 10.835c-3.809 0-6.853 1.563-9.05 3.956 0 0 .016-.017.016 0 .44.667 4.623-1.09 9.18.456 3.208 1.09 5.519 3.857 6.186 7.178.212 1.075.326 2.198.326 3.32 0 5.421-2.735 9.344-6.511 9.344-4.2 0-6.804-3.483-6.804-9.083 0-5.355 2.148-6.332 6.12-6.592-.277-1.319-1.677-2.328-3.45-2.735-3.484-.798-6.951 1.27-8.205 4.623-.619 1.628-1.074 3.337-1.074 5.014 0 9.148 4.964 14.617 13.282 14.617 8.644 0 13.316-7.976 13.316-15.464-.016-9.164-4.998-14.634-13.332-14.634z" fill="#FF0003"/></svg>
